img/breaf_bg1.svg

<svg width="617" height="585" viewBox="0 0 617 585" fill="none" xmlns="http://www.w3.org/2000/svg">
<path d="M449.22 581.913L-47.1021 448.924C-55.2532 446.755 -62.9141 443.065 -69.6466 438.065C-76.379 433.066 -82.0507 426.855 -86.3373 419.788C-90.6239 412.721 -93.4411 404.937 -94.6278 396.881C-95.8144 388.825 -95.3473 380.656 -93.2531 372.84L-5.55728 45.5548C-2.7578 35.1059 2.85824 25.6087 10.7269 18.0169C18.5955 10.4251 28.4398 5.006 39.2711 2.30374C50.1024 -0.398522 61.5396 -0.288808 72.434 2.62186C83.3284 5.53254 93.2966 11.1417 101.338 18.8861L286.347 197.334L535.471 135.212C546.307 132.525 557.744 132.652 568.634 135.578C579.525 138.505 589.484 144.128 597.513 151.884C605.542 159.64 611.358 169.255 614.377 179.764C617.395 190.273 617.51 201.306 614.71 211.755L527.015 539.04C522.795 554.789 512.232 568.15 497.647 576.188C483.061 584.226 465.645 586.285 449.22 581.913Z" fill="#F9F5FF"/>
</svg>

<svg width="617" height="585" fill="none" xmlns="http://www.w3.org/2000/svg"><path d="M449.22 581.913-47.102 448.924a66.517 66.517 0 0 1-22.545-10.859c-6.732-4.999-12.404-11.21-16.69-18.277-4.287-7.067-7.104-14.851-8.29-22.907a59.381 59.381 0 0 1 1.374-24.041L-5.557 45.555c2.8-10.45 8.415-19.946 16.284-27.538C18.596 10.425 28.44 5.006 39.27 2.304 50.102-.4 61.54-.29 72.434 2.622c10.894 2.91 20.863 8.52 28.904 16.264l185.009 178.448 249.124-62.122c10.836-2.687 22.273-2.56 33.163.366 10.891 2.927 20.85 8.55 28.879 16.306s13.845 17.371 16.864 27.88c3.018 10.509 3.133 21.542.333 31.991L527.015 539.04c-4.22 15.749-14.783 29.11-29.368 37.148-14.586 8.038-32.002 10.097-48.427 5.725Z" fill="#F9F5FF"/></svg>
